X:1
T:the Craigellachie Lassies
T:the Craigellachie Lassies
T:William Marshall
C:William Marshall
%%score { ( 1 2 ) ( 3 4 ) }
L:1/8
M:6/8
K:D
V:1 treble 
V:2 treble 
V:3 bass 
V:4 bass 
V:1
 A |{c} d2 d{e} dcB | A>BG{G} F>ED |{c} d2 d d>cd | e>fd c>BG |{c} d2 d{e} d>cB | A>BG{G} F>ED | %7
 EC>A, A,>B,C | D3 D2 |] f/g/ | afd def | gec Ace | fdA GBe | ecA FGA | BGE EFG | AFD DFA | %16
 ECA, A,B,C | D3 D2 f/g/ | afd afd | gec gec | fdA fdA | ecA ecA | BGB dcB | AFA Bcd | %24
 Bgf{f} e>dc | d3 D2 |] %26
V:2
 x | x6 | x6 | x6 | B2 ^G =G3 | x6 | x6 | x6 | x5 |] x | x6 | x6 | x6 | G3 D3 | D3 C3 | D3 x3 | %16
 x6 | x6 | x6 | x6 | x6 | x6 | x6 | x6 | G3 G3 | F3 x2 |] %26
V:3
 z | [dfd']2 [dfd'] [dgd']2 [dgd'] | [dfd']2 [dbd'] [dad']2 [df] | [dfd']2 [dfd'] [dfd']2 [dfd'] | %4
 [Gg]2 [Cc] [Aa]2 [Aa] | fad' gbd' | fad' faf | Aeg Aeg | f3 f2 |] z | d2 [fd'] [fd']2 [fd'] | %11
 e2 [ac'] [ac']2 [ac'] | d2 [fd'] [Gg]2 [Ee] | [Aa]2 [Aa] [da]ef | [Gg]2 [Ee] [Aa]2 [Gg] | %15
 [Ff]2 [Dd] [Dd]2 [Dd] | [Aeg]2 [Aeg] [Aeg]2 [Aeg] | f3 f2 z |{D} d2 [fd'] [fd']2 [fd'] | %19
 a2 [ae'] [ae']2 [ae'] |{D} d2 [fd'] [fd']2 [fd'] | [ac']2 [ae'] [ae']2 [fd'] | %22
 [gd']2 [gd'] [db]ag | [dfa]2 [dfa] [Gg]2 [Ff] | [Gg]2 [Ee] [Aa]2 [A,A] | DFA d2 |] %26
V:4
 x | x6 | x6 | x6 | x6 | D,3 D,3 | D,3 D,3 | A,,3 A,,3 | D,,F,,A,, D,2 |] x | D,6 | E,6 | x6 | x6 | %14
 x6 | x6 | x6 | D,,F,,A,, D,2 z | x6 | x6 | x6 | x6 | x6 | x6 | x6 | x5 |] %26

